build/img/my-comfort.svg

<svg width="159" height="40" viewBox="0 0 159 40" fill="none" xmlns="http://www.w3.org/2000/svg">
<g clip-path="url(#clip0)">
<path d="M46.8813 0.656418C49.5458 0.611687 52.1929 1.09317 54.6694 2.07302C57.1459 3.05287 59.4026 4.51166 61.3092 6.36502C63.1497 8.15341 64.6226 10.2816 65.6456 12.6306C66.6992 15.06 67.2302 17.6822 67.2043 20.3282C67.2326 22.9745 66.7015 25.5971 65.6456 28.0259C64.6236 30.384 63.1444 32.5183 61.2928 34.3068C59.4411 36.0952 57.2533 37.5027 54.8546 38.4486C52.3254 39.5064 49.6045 40.0345 46.8613 40H31.7539V0.656418H46.8813ZM51.957 31.6261C53.4075 31.039 54.7156 30.1506 55.7938 29.0204C56.8602 27.8623 57.6945 26.5121 58.2518 25.0423C58.8516 23.5224 59.1502 21.9014 59.131 20.2686C59.1504 18.6228 58.8519 16.9887 58.2518 15.455C57.6876 14.0184 56.8534 12.702 55.7938 11.5764C54.7022 10.4619 53.3976 9.57601 51.957 8.97069C50.3472 8.30806 48.6233 7.96351 46.8813 7.95627H39.8272V32.6206H46.8813C48.6257 32.6607 50.358 32.3213 51.957 31.6261Z" fill="#231F20"/>
<path d="M11.99 0C9.61859 0 7.30045 0.699938 5.32871 2.0113C3.35697 3.32267 1.82018 5.18656 0.912688 7.36728C0.00519509 9.548 -0.232246 11.9476 0.230389 14.2626C0.693025 16.5777 1.83496 18.7042 3.51179 20.3732C5.18862 22.0423 7.32503 23.1789 9.65086 23.6394C11.9767 24.0999 14.3875 23.8636 16.5784 22.9603C18.7692 22.057 20.6418 20.5273 21.9593 18.5647C23.2768 16.6021 23.98 14.2948 23.98 11.9344C23.98 8.76917 22.7167 5.73362 20.4682 3.49549C18.2196 1.25737 15.1699 0 11.99 0V0ZM11.99 16.9468C11.0168 16.931 10.0698 16.6304 9.26719 16.0824C8.46457 15.5344 7.84183 14.7632 7.47669 13.8652C7.11154 12.9671 7.02015 11.982 7.21391 11.0326C7.40767 10.0832 7.87802 9.21155 8.56625 8.52651C9.25449 7.84147 10.1301 7.37331 11.084 7.18044C12.0378 6.98758 13.0276 7.07855 13.9298 7.442C14.832 7.80545 15.6068 8.4253 16.1573 9.2242C16.7079 10.0231 17.0099 10.9657 17.0258 11.9344C17.0366 12.5956 16.9137 13.2522 16.6645 13.8652C16.4152 14.4782 16.0447 15.035 15.5749 15.5026C15.1051 15.9702 14.5457 16.3391 13.9298 16.5872C13.314 16.8352 12.6543 16.9575 11.99 16.9468Z" fill="#231F20"/>
<path d="M82.5509 4.53504V14.1621H80.9922V3.1228H83.61L86.4476 12.3322L89.2853 3.1228H91.9031V14.1621H90.3244V4.53504L87.267 14.1621H85.6083L82.5509 4.53504Z" fill="#231F20"/>
<path d="M94.1413 8.63244C94.0628 7.90529 94.1389 7.16984 94.3647 6.4739C94.5906 5.77796 94.961 5.13712 95.452 4.59306C95.943 4.049 96.5436 3.61389 97.2146 3.31604C97.8857 3.01819 98.6122 2.86426 99.3469 2.86426C100.082 2.86426 100.808 3.01819 101.479 3.31604C102.15 3.61389 102.751 4.049 103.242 4.59306C103.733 5.13712 104.103 5.77796 104.329 6.4739C104.555 7.16984 104.631 7.90529 104.553 8.63244C104.631 9.3596 104.555 10.0951 104.329 10.791C104.103 11.4869 103.733 12.1278 103.242 12.6718C102.751 13.2159 102.15 13.651 101.479 13.9488C100.808 14.2467 100.082 14.4006 99.3469 14.4006C98.6122 14.4006 97.8857 14.2467 97.2146 13.9488C96.5436 13.651 95.943 13.2159 95.452 12.6718C94.961 12.1278 94.5906 11.4869 94.3647 10.791C94.1389 10.0951 94.0628 9.3596 94.1413 8.63244ZM102.974 8.63244C102.974 5.78809 101.375 4.23662 99.3569 4.23662C97.3386 4.23662 95.74 5.78809 95.74 8.63244C95.74 11.4768 97.3386 13.068 99.3569 13.068C101.375 13.068 102.974 11.4967 102.974 8.63244Z" fill="#231F20"/>
<path d="M108.369 14.1619H106.811V3.12257H108.369V11.9341L114.364 3.16235H115.903V14.1619H114.344V5.3901L108.369 14.1619ZM111.387 2.50596C109.628 2.50596 108.769 1.71034 108.609 0.676025H109.788C109.788 1.25285 110.447 1.5711 111.407 1.5711C112.366 1.5711 112.925 1.23296 113.045 0.676025H114.224C114.104 1.71034 113.205 2.50596 111.387 2.50596Z" fill="#231F20"/>
<path d="M82.5509 25.1416V30.1739H80.9922V19.1147H82.5509V23.8089H83.67L87.4069 19.1147H89.2853L85.0089 24.346L89.4452 30.1739H87.5867L83.7099 25.1416H82.5509Z" fill="#231F20"/>
<path d="M89.9245 24.6447C89.846 23.9175 89.9221 23.182 90.148 22.4861C90.3738 21.7902 90.7442 21.1493 91.2352 20.6053C91.7262 20.0612 92.3268 19.6261 92.9978 19.3282C93.6689 19.0304 94.3954 18.8765 95.1301 18.8765C95.8649 18.8765 96.5914 19.0304 97.2625 19.3282C97.9335 19.6261 98.5341 20.0612 99.0251 20.6053C99.5161 21.1493 99.8865 21.7902 100.112 22.4861C100.338 23.182 100.414 23.9175 100.336 24.6447C100.414 25.3718 100.338 26.1073 100.112 26.8032C99.8865 27.4991 99.5161 28.14 99.0251 28.684C98.5341 29.2281 97.9335 29.6632 97.2625 29.9611C96.5914 30.2589 95.8649 30.4128 95.1301 30.4128C94.3954 30.4128 93.6689 30.2589 92.9978 29.9611C92.3268 29.6632 91.7262 29.2281 91.2352 28.684C90.7442 28.14 90.3738 27.4991 90.148 26.8032C89.9221 26.1073 89.846 25.3718 89.9245 24.6447ZM98.7371 24.6447C98.7371 21.7804 97.1584 20.2289 95.1401 20.2289C93.1218 20.2289 91.5232 21.7804 91.5232 24.6447C91.5232 27.5089 93.1018 29.0604 95.1401 29.0604C97.1784 29.0604 98.7371 27.489 98.7371 24.6447Z" fill="#231F20"/>
<path d="M104.072 20.5469V30.1739H102.514V19.1147H105.131L107.969 28.3241L110.787 19.1147H113.405V30.1739H111.846V20.5469L108.788 30.1739H107.13L104.072 20.5469Z" fill="#231F20"/>
<path d="M126.934 24.6446C126.938 25.2782 126.811 25.9059 126.56 26.4885C126.31 27.0711 125.942 27.5961 125.479 28.0309C125.016 28.4657 124.468 28.8009 123.869 29.0157C123.27 29.2304 122.633 29.3201 121.998 29.2791V30.572H120.419V29.2791C119.168 29.2791 117.969 28.7846 117.084 27.9042C116.2 27.0239 115.703 25.8299 115.703 24.5849C115.703 23.34 116.2 22.146 117.084 21.2657C117.969 20.3853 119.168 19.8908 120.419 19.8908V18.5183H121.998V19.8908C122.642 19.8549 123.287 19.9521 123.891 20.1762C124.496 20.4003 125.047 20.7465 125.511 21.193C125.974 21.6395 126.34 22.1767 126.585 22.7707C126.83 23.3647 126.949 24.0027 126.934 24.6446ZM117.062 24.6446C117.048 25.089 117.126 25.5314 117.289 25.9452C117.452 26.3589 117.698 26.7353 118.012 27.0515C118.326 27.3678 118.702 27.6172 119.115 27.7847C119.529 27.9522 119.973 28.0343 120.419 28.026V21.1836C119.968 21.1722 119.52 21.2534 119.102 21.4223C118.684 21.5912 118.306 21.8442 117.991 22.1653C117.676 22.4864 117.431 22.8689 117.271 23.2886C117.111 23.7084 117.04 24.1565 117.062 24.6048V24.6446ZM125.335 24.6048C125.354 24.1589 125.282 23.7138 125.122 23.2967C124.962 22.8796 124.719 22.4993 124.406 22.1791C124.094 21.8589 123.719 21.6054 123.305 21.4343C122.891 21.2631 122.446 21.1778 121.998 21.1836V27.9862C122.444 27.9946 122.886 27.9125 123.299 27.7448C123.712 27.577 124.086 27.3273 124.398 27.0108C124.71 26.6942 124.955 26.3176 125.116 25.9039C125.277 25.4903 125.351 25.0482 125.335 24.6048Z" fill="#231F20"/>
<path d="M128.372 24.6447C128.293 23.9175 128.369 23.182 128.595 22.4861C128.821 21.7902 129.192 21.1493 129.683 20.6053C130.174 20.0612 130.774 19.6261 131.445 19.3282C132.116 19.0304 132.843 18.8765 133.577 18.8765C134.312 18.8765 135.039 19.0304 135.71 19.3282C136.381 19.6261 136.981 20.0612 137.472 20.6053C137.963 21.1493 138.334 21.7902 138.56 22.4861C138.785 23.182 138.862 23.9175 138.783 24.6447C138.862 25.3718 138.785 26.1073 138.56 26.8032C138.334 27.4991 137.963 28.14 137.472 28.684C136.981 29.2281 136.381 29.6632 135.71 29.9611C135.039 30.2589 134.312 30.4128 133.577 30.4128C132.843 30.4128 132.116 30.2589 131.445 29.9611C130.774 29.6632 130.174 29.2281 129.683 28.684C129.192 28.14 128.821 27.4991 128.595 26.8032C128.369 26.1073 128.293 25.3718 128.372 24.6447ZM137.204 24.6447C137.204 21.7804 135.606 20.2289 133.587 20.2289C131.569 20.2289 129.891 21.8799 129.891 24.6447C129.891 27.4095 131.489 29.0604 133.507 29.0604C135.526 29.0604 137.124 27.489 137.124 24.6447" fill="#231F20"/>
<path d="M149.136 22.4564C149.136 25.2013 147.238 25.798 144.52 25.798H142.522V30.1739H140.963V19.1147H144.44C147.158 19.1147 149.056 19.7314 149.056 22.4564H149.136ZM142.522 24.4454H144.52C146.139 24.4454 147.417 24.2664 147.417 22.4564C147.417 20.6463 146.139 20.4673 144.52 20.4673H142.522V24.4454Z" fill="#231F20"/>
<path d="M149.355 20.4673V19.1147H158.148V20.4673H154.531V30.1739H152.972V20.4673H149.355Z" fill="#231F20"/>
<path d="M159 35H82V40H159V35Z" fill="url(#paint0_linear)"/>
</g>
<defs>
<linearGradient id="paint0_linear" x1="82.2303" y1="37.7081" x2="159.001" y2="37.7081" gradientUnits="userSpaceOnUse">
<stop stop-color="#A0B1FF"/>
<stop offset="1" stop-color="#FFDCD6"/>
</linearGradient>
<clipPath id="clip0">
<rect width="159" height="40" fill="white"/>
</clipPath>
</defs>
</svg>

<svg width="159" height="40" viewBox="0 0 159 40" fill="none" xmlns="http://www.w3.org/2000/svg"><g clip-path="url(#clip0)"><path d="M46.881.656a20.247 20.247 0 017.788 1.417 20.173 20.173 0 016.64 4.292 19.71 19.71 0 014.337 6.266 18.88 18.88 0 011.558 7.697 18.801 18.801 0 01-1.558 7.698 19.532 19.532 0 01-4.353 6.28 19.636 19.636 0 01-6.438 4.143A20.064 20.064 0 0146.86 40H31.754V.656H46.88zm5.076 30.97a11.013 11.013 0 003.837-2.606 12.323 12.323 0 002.458-3.978c.6-1.52.898-3.14.879-4.773.02-1.646-.28-3.28-.88-4.814a12.126 12.126 0 00-2.457-3.879 11.731 11.731 0 00-3.837-2.605 13.483 13.483 0 00-5.076-1.015h-7.054v24.665h7.054c1.745.04 3.477-.3 5.076-.995zM11.99 0C9.619 0 7.3.7 5.329 2.011A11.947 11.947 0 00.913 7.367a11.883 11.883 0 00-.683 6.896 11.917 11.917 0 003.282 6.11A12.007 12.007 0 009.65 23.64c2.326.46 4.736.225 6.927-.679a11.979 11.979 0 005.381-4.395 11.895 11.895 0 00-1.49-15.07A12.019 12.019 0 0011.99 0zm0 16.947a4.972 4.972 0 01-2.723-.865 4.937 4.937 0 01-1.79-2.217 4.911 4.911 0 011.09-5.338 4.977 4.977 0 015.364-1.085 4.951 4.951 0 012.226 1.782 4.918 4.918 0 01-.582 6.279 4.958 4.958 0 01-3.585 1.444zM82.55 4.535v9.627h-1.558V3.122h2.618l2.838 9.21 2.837-9.21h2.618v11.04h-1.579V4.535l-3.057 9.627h-1.659l-3.057-9.627zm11.591 4.097a5.189 5.189 0 011.311-4.039 5.235 5.235 0 013.895-1.729 5.254 5.254 0 013.895 1.73 5.207 5.207 0 011.311 4.038 5.194 5.194 0 01-1.311 4.04 5.235 5.235 0 01-3.895 1.729 5.256 5.256 0 01-3.895-1.73 5.206 5.206 0 01-1.31-4.039zm8.833 0c0-2.844-1.599-4.395-3.617-4.395S95.74 5.788 95.74 8.632c0 2.845 1.599 4.436 3.617 4.436s3.617-1.571 3.617-4.436zm5.395 5.53h-1.558V3.122h1.558v8.812l5.995-8.772h1.539v11h-1.559V5.39l-5.975 8.772zm3.018-11.656c-1.759 0-2.618-.796-2.778-1.83h1.179c0 .577.659.895 1.619.895.959 0 1.518-.338 1.638-.895h1.179c-.12 1.034-1.019 1.83-2.837 1.83zM82.55 25.142v5.032h-1.558v-11.06h1.559v4.695h1.119l3.737-4.694h1.878l-4.276 5.231 4.436 5.828h-1.858l-3.877-5.032h-1.16zm7.374-.497a5.187 5.187 0 011.311-4.04 5.235 5.235 0 013.895-1.729 5.258 5.258 0 013.895 1.73 5.2 5.2 0 011.311 4.039 5.194 5.194 0 01-1.31 4.039 5.235 5.235 0 01-3.896 1.729 5.257 5.257 0 01-3.895-1.729 5.205 5.205 0 01-1.31-4.04zm8.813 0c0-2.865-1.579-4.416-3.597-4.416s-3.617 1.551-3.617 4.416c0 2.864 1.579 4.415 3.617 4.415 2.038 0 3.597-1.571 3.597-4.415zm5.335-4.098v9.627h-1.558v-11.06h2.617l2.838 9.21 2.818-9.21h2.618v11.06h-1.559v-9.627l-3.058 9.627h-1.658l-3.058-9.627zm22.862 4.098a4.61 4.61 0 01-1.455 3.386 4.64 4.64 0 01-3.481 1.248v1.293h-1.579v-1.293a4.728 4.728 0 01-3.335-1.375 4.685 4.685 0 01-1.381-3.32c0-1.244.497-2.438 1.381-3.318a4.728 4.728 0 013.335-1.375v-1.373h1.579v1.373a4.693 4.693 0 013.513 1.302c.463.447.829.984 1.074 1.578a4.63 4.63 0 01.349 1.874zm-9.872 0a3.268 3.268 0 00.95 2.407 3.305 3.305 0 002.407.974v-6.842a3.292 3.292 0 00-2.428.981 3.265 3.265 0 00-.929 2.44v.04zm8.273-.04a3.263 3.263 0 00-.929-2.426 3.294 3.294 0 00-2.408-.995v6.802a3.291 3.291 0 002.4-.975 3.266 3.266 0 00.937-2.406zm3.037.04a5.177 5.177 0 011.311-4.04 5.233 5.233 0 013.894-1.729 5.233 5.233 0 014.983 3.61c.225.696.302 1.431.223 2.159a5.194 5.194 0 01-1.311 4.039 5.233 5.233 0 01-3.895 1.729 5.233 5.233 0 01-4.982-3.61 5.177 5.177 0 01-.223-2.158zm8.832 0c0-2.865-1.598-4.416-3.617-4.416-2.018 0-3.696 1.65-3.696 4.416 0 2.765 1.598 4.415 3.616 4.415 2.019 0 3.617-1.571 3.617-4.415m12.012-2.189c0 2.745-1.898 3.342-4.616 3.342h-1.998v4.376h-1.559v-11.06h3.477c2.718 0 4.616.617 4.616 3.342h.08zm-6.614 1.99h1.998c1.619 0 2.897-.18 2.897-1.99s-1.278-1.989-2.897-1.989h-1.998v3.978zm6.833-3.979v-1.352h8.793v1.352h-3.617v9.707h-1.559v-9.707h-3.617z" fill="#231F20"/><path d="M159 35H82v5h77v-5z" fill="url(#paint0_linear)"/></g><defs><linearGradient id="paint0_linear" x1="82.23" y1="37.708" x2="159.001" y2="37.708" gradientUnits="userSpaceOnUse"><stop stop-color="#A0B1FF"/><stop offset="1" stop-color="#FFDCD6"/></linearGradient><clipPath id="clip0"><path fill="#fff" d="M0 0h159v40H0z"/></clipPath></defs></svg>
